pico_icons/symbolic/actions/format-text-strikethrough-symbolic.svg

<?xml version="1.0" encoding="UTF-8"?>
<svg height="16px" viewBox="0 0 16 16" width="16px" xmlns="http://www.w3.org/2000/svg">
    <path d="m 4 3 v 2 h 6 c 0.429688 0 1 0.613281 1 1 h 2 c 0 -1.632812 -1.320312 -3 -3 -3 z m -3 4 v 2 h 14 v -2 z m 2 3 c 0.007812 0.71875 0.269531 1.453125 0.78125 2.03125 s 1.308594 0.96875 2.21875 0.96875 h 7 v -3 h -2 v 1 h -5 c -0.398438 0 -0.566406 -0.109375 -0.71875 -0.28125 s -0.277344 -0.4375 -0.28125 -0.71875 z m 0 0" fill="#2e3436"/>
</svg>

<svg xmlns="http://www.w3.org/2000/svg" width="16" height="16" version="1.1">
 <path style="fill:#fff1e8" d="M 4 3 L 4 5 L 10 5 C 10.43 5 11 5.61 11 6 L 13 6 C 13 4.37 11.68 3 10 3 L 4 3 z M 3 10 C 3 10.72 3.2693 11.449 3.7793 12.029 C 4.2893 12.609 5.09 13 6 13 L 13 13 L 13 10 L 11 10 L 11 11 L 6 11 C 5.6 11 5.4293 10.891 5.2793 10.721 C 5.1293 10.551 5 10.28 5 10 L 3 10 z"/>
 <path style="fill:#fff1e8" d="M 1,7 V 9 H 15 V 7 Z"/>
</svg>
